src/svg/11-flags/flag-gr.svg

<?xml version="1.0" encoding="UTF-8" standalone="no"?>
<svg width="640px" height="480px" viewBox="0 0 640 480" version="1.1" xmlns="http://www.w3.org/2000/svg" xmlns:xlink="http://www.w3.org/1999/xlink">
    <g stroke="none" stroke-width="1" fill="none" fill-rule="evenodd">
        <rect id="Rectangle-path" fill="#0D5EAF" x="0" y="0" width="640" height="480"></rect>
        <path d="M106.666667,106.666667 L106.666667,0 L160,0 L160,106.666667 L266.666667,106.666667 L266.666667,160 L160,160 L160,266.666667 L106.666667,266.666667 L106.666667,160 L0,160 L0,106.666667 L106.666667,106.666667 L106.666667,106.666667 Z M639.50174,106.666667 L639.50174,53.3333333 L266.666667,53.3333333 L266.666667,106.666667 L639.50174,106.666667 L639.50174,106.666667 Z M266.666667,213.333333 L639.50174,213.333333 L639.50174,160 L266.666667,160 L266.666667,213.333333 L266.666667,213.333333 Z M0,320 L639.50174,320 L639.50174,266.666667 L0,266.666667 L0,320 L0,320 Z M0,426.666667 L639.50174,426.666667 L639.50174,373.333333 L0,373.333333 L0,426.666667 L0,426.666667 Z" id="Shape" fill="#FFFFFF"></path>
    </g>
</svg>

<svg xmlns="http://www.w3.org/2000/svg" width="640" height="480"><g fill="none" fill-rule="evenodd"><path fill="#0D5EAF" d="M0 0h640v480H0z"/><path fill="#FFF" d="M106.667 106.667V0H160v106.667h106.667V160H160v106.667h-53.333V160H0v-53.333h106.667zm532.835 0V53.333H266.667v53.334h372.835zM266.667 213.333h372.835V160H266.667v53.333zM0 320h639.502v-53.333H0V320zm0 106.667h639.502v-53.334H0v53.334z"/></g></svg>
